X:1772
L:1/8
Q:1/4=144
M:2/4
K:Emin
"Em" bb/b/ ba |"G" g2"Em" e2 |"G" gg/g/ ge |"D" d4 |"Em" bb/b/ ba |"G" g2"Em" e2 |"G" gg/g/ ge | 
"D" d4 :|

